source/img/Group1.svg

<svg width="478" height="210" viewBox="0 0 478 210" version="1.1" xmlns="http://www.w3.org/2000/svg" xmlns:xlink="http://www.w3.org/1999/xlink">
<title>Group</title>
<desc>Created using Figma</desc>
<g id="Canvas" transform="translate(53 182)">
<g id="Group">
<g id="edge">
<g id="Group">
<g id="Group">
<g id="Group">
<g id="Vector">
<use xlink:href="#path0_fill" transform="translate(305 -182)" fill="#26A6D1"/>
</g>
</g>
</g>
</g>
</g>
<g id="opera">
<g id="Group">
<g id="Vector">
<use xlink:href="#path1_fill" transform="translate(-53 -182)" fill="#E2574C"/>
</g>
</g>
</g>
<g id="safari">
<g id="Vector">
<use xlink:href="#path2_fill" transform="translate(22 -158)" fill="#2196F3"/>
</g>
<g id="Vector">
<use xlink:href="#path3_fill" transform="translate(48.25 -96.75)" fill="#FAFAFA"/>
</g>
<g id="Vector">
<use xlink:href="#path4_fill" transform="translate(83.25 -131.75)" fill="#F44336"/>
</g>
</g>
<g id="firefox">
<g id="Group">
<g id="Group">
<g id="Vector">
<use xlink:href="#path5_fill" transform="translate(215.37 -158)" fill="#2394BC"/>
</g>
<g id="Vector">
<use xlink:href="#path6_fill" transform="translate(211 -148.555)" fill="#EC8840"/>
</g>
</g>
</g>
</g>
<g id="chrome (1)">
<g id="Group">
<g id="Vector">
<use xlink:href="#path7_fill" transform="translate(155.974 -82.0627)" fill="#26A6D1"/>
</g>
<g id="Vector">
<use xlink:href="#path8_fill" transform="translate(106 -94.5008)" fill="#3DB39E"/>
</g>
<g id="Vector">
<use xlink:href="#path9_fill" transform="translate(182.748 -81.6729)" fill="#EFC75E"/>
</g>
<g id="Vector">
<use xlink:href="#path10_fill" transform="translate(125.182 -132)" fill="#E2574C"/>
</g>
</g>
</g>
<g id="explorer">
<g id="Vector">
<use xlink:href="#path11_fill" transform="translate(163 -182)" fill="#2995CC"/>
</g>
</g>
</g>
</g>
<defs>
<path id="path0_fill" d="M 46.3532 29.5928C 41.1549 34.8025 38.5553 41.2145 37.6892 48.0271C 53.2846 48.0271 68.447 48.0271 83.6094 48.0271C 83.6094 46.8249 83.6094 46.0233 83.6094 44.8211C 83.1764 40.4129 82.3098 36.0047 79.7107 31.9971C 76.245 26.7874 70.6132 23.9824 64.1153 23.1808C 54.5847 21.578 45.4872 23.1808 36.8231 26.3868C 23.8269 30.795 12.9967 38.0085 4.33225 47.6265C 3.03267 49.2292 1.73309 51.233 -1.19808e-07 53.2368C -1.19808e-07 52.0346 -1.98545e-07 51.6341 0.433034 50.8325C 2.16565 39.6117 6.49789 28.7916 14.7289 19.9748C 24.2599 9.55569 36.3896 3.14373 51.119 0.739352C 65.4148 -1.26444 78.8446 0.739352 91.4078 7.5519C 103.105 13.5633 110.902 22.7802 115.668 34.402C 118.267 40.8139 119.566 48.0275 120 54.84C 120 59.2482 120 63.6564 120 68.0646C 120 68.4651 120 68.8662 120 69.6673C 92.7079 69.6673 65.8488 69.6673 38.5562 69.6673C 38.5562 75.6787 40.7224 81.2891 45.0546 85.6973C 50.2529 90.907 57.1843 93.3114 64.1157 94.5136C 79.7112 96.5174 94.0075 94.113 107.437 86.8994C 107.87 86.8994 108.303 86.4989 108.303 86.4989C 108.303 86.4989 108.303 86.4989 108.736 86.4989C 108.736 86.8994 108.736 87.3005 108.736 87.701C 108.736 95.3152 108.736 102.929 108.736 110.544C 108.736 111.345 108.303 111.746 107.437 112.146C 97.9062 116.554 87.5091 119.36 76.679 119.76C 69.7476 120.161 62.8162 120.161 56.3183 118.959C 35.9576 114.951 19.4951 101.326 15.5964 81.6892C 11.2641 59.2473 22.9608 38.8092 45.9212 29.5923C 45.9202 29.5928 45.9202 29.5928 46.3532 29.5928Z"/>
<path id="path1_fill" d="M 94.4462 9.44053C 84.9694 3.36174 73.2407 0 60.0158 0C 47.9189 0 37.0782 2.80351 28.0576 7.9301C 10.693 17.7008 1.57564e-07 35.9899 1.57564e-07 59.4249C 1.57564e-07 91.1235 23.9975 120 60.004 120C 96.0061 120 120 91.1309 120 59.4249C 119.996 37.1442 110.331 19.5146 94.4462 9.44053ZM 60.0119 11.1947C 79.3252 11.1947 83.9975 36.3349 83.9975 59.1701C 83.9975 80.3302 81.0692 108.644 60.2439 108.644C 39.4185 108.644 35.9823 80.0527 35.9823 58.8963C 35.9863 36.0611 40.6946 11.1947 60.0119 11.1947Z"/>
<path id="path2_fill" d="M 70 140C 108.66 140 140 108.66 140 70C 140 31.3401 108.66 0 70 0C 31.3401 0 0 31.3401 0 70C 0 108.66 31.3401 140 70 140Z"/>
<path id="path3_fill" d="M 35 0L 0 52.5L 52.5 17.5L 35 0Z"/>
<path id="path4_fill" d="M 0 35L 17.5 52.5L 52.5 0L 0 35Z"/>
<path id="path5_fill" d="M 65.5443 -2.45218e-08C 101.812 -2.45218e-08 131.089 30.1609 131.089 67.5244C 131.089 104.888 101.812 135.049 65.5443 135.049C 29.2769 135.049 4.39436e-08 104.888 4.39436e-08 67.5244C 4.39436e-08 30.1609 29.2764 -2.45218e-08 65.5443 -2.45218e-08Z"/>
<path id="path6_fill" d="M 81.2747 129.205C 114.484 123.353 139.828 94.0924 139.828 58.0794L 139.391 58.9798C 140.265 52.2272 140.265 45.925 138.954 40.9733C 138.517 45.0246 138.08 47.2754 137.206 48.1759C 137.206 47.7259 137.206 43.6741 135.895 38.2724C 135.458 34.2211 134.584 30.1694 133.273 26.5681C 133.71 28.3685 133.71 29.7194 133.71 31.0698C 128.467 17.1146 116.232 -0.441502 85.2077 0.00847603C 85.2077 0.00847603 96.1316 1.35891 100.938 9.0115C 100.938 9.0115 95.6948 7.66107 91.7618 9.91195C 96.5684 11.7124 100.938 13.9632 104.434 16.2141L 104.871 16.2141C 105.745 16.6641 106.618 17.5645 107.492 18.0145C 114.047 22.9663 120.164 29.7189 119.727 38.2719C 117.979 35.5711 116.231 33.7702 113.61 33.3202C 116.669 45.4745 116.669 55.378 114.484 63.0311C 112.736 57.6294 111.425 54.928 110.114 53.5776C 111.862 69.7832 109.677 81.4876 102.686 89.1402C 103.997 84.6384 104.433 80.5872 104.433 77.4358C 96.1311 90.0402 86.9548 96.7928 76.4677 97.2428C 72.5352 97.2428 68.6023 96.7928 64.6698 95.4424C 59.4265 93.642 54.6194 90.4906 50.2502 85.9889C 56.8048 86.4389 63.3589 85.5389 68.6027 82.3876L 77.3418 76.5354C 78.6526 76.0854 79.5266 76.0854 80.8375 76.5354C 83.0223 76.0854 83.8964 75.185 83.0223 72.9341C 82.1483 71.5836 80.4007 70.2332 78.2158 68.8828C 73.846 66.6319 69.0395 67.0824 64.233 70.2332C 59.4265 72.9341 55.0567 72.9341 50.687 69.7832C 48.0653 67.9828 45.0064 65.2815 42.3847 61.6802L 41.5107 59.8798C 41.0739 63.9311 41.5107 68.4328 43.2583 74.735C 41.5107 68.8828 41.0734 63.9311 41.5107 59.8798C 41.5107 56.7284 42.8215 54.4781 45.4432 54.4781L 44.5691 54.4781L 45.88 54.4781C 48.9389 54.928 51.9973 55.3785 55.9303 56.7289C 56.3671 53.1276 55.9303 49.0763 53.3086 45.0246C 56.8043 41.4233 59.8632 39.1724 62.4849 37.8219C 63.7957 37.372 64.2325 36.0215 64.6698 34.6706C 65.5438 32.8702 65.1066 31.9698 64.233 31.0693C 61.6113 31.0693 59.4265 31.0693 56.8048 30.6193C 55.9308 30.1694 54.6199 29.2689 52.8723 27.9185L 48.9398 23.8672L 47.629 22.9667L 47.1922 22.5168L 47.629 22.0668C 48.0658 18.9155 48.9398 16.2146 50.2507 13.9637L 50.6874 13.5137C 51.9983 11.2629 54.6199 9.01199 58.1156 6.31113C 51.1242 7.21158 45.0069 10.3624 39.3263 15.7646C 34.9565 14.4142 29.276 14.8642 23.1586 17.565L 22.2846 18.015L 23.1586 17.565C 19.2261 15.7646 16.604 10.3624 15.2932 1.3594C 10.0503 6.31113 7.86545 15.7646 7.86545 28.8194L 6.55462 31.0703L 6.11784 31.5203C 5.24379 32.8707 4.37023 34.6716 3.05892 36.922C 1.31131 40.5233 0.437263 43.2242 0.437263 45.925L 0.437263 46.8255C 0.437263 47.2754 0.437263 48.1759 0.437263 48.6259L 4.36975 45.4745C 3.05892 49.5258 1.74809 53.5776 1.31083 57.6289L 1.31083 59.4293L 0 58.0799C 0 73.3855 4.80653 87.7908 12.672 99.4946L 13.1088 99.9446L 13.5455 100.395C 19.2261 108.498 26.6543 115.25 35.3938 120.652C 41.5112 124.253 48.0658 126.954 55.0572 128.755L 56.368 129.205C 57.6788 129.655 59.4269 129.655 60.7378 130.105C 62.0486 130.105 62.9226 130.555 64.2335 130.555L 65.5443 130.555L 67.7292 130.555L 69.914 130.555L 71.6617 130.555L 74.7206 130.555C 76.4682 130.555 78.2163 130.105 79.9639 130.105C 79.9639 129.205 81.2747 129.205 81.2747 129.205ZM 125.408 41.4238L 125.408 41.8737L 125.408 41.4238Z"/>
<path id="path7_fill" d="M 30.0265 -1.94398e-06C 46.6114 -1.94398e-06 60.053 13.438 60.053 29.9952C 60.053 46.5677 46.6108 59.9904 30.0265 59.9904C 13.4515 59.9904 -1.64404e-06 46.5622 -1.64404e-06 29.9952C -1.64404e-06 13.438 13.4521 -1.94398e-06 30.0265 -1.94398e-06Z"/>
<path id="path8_fill" d="M 80.0005 82.4321C 59.7424 82.4321 43.0426 67.3945 40.3804 47.8774L 12.7809 0.0697417L 12.7506 1.40771e-06L 9.66288 4.45409C 8.90207 5.84891 8.16161 7.26349 7.48106 8.70828L 6.00453 12.158C 5.51418 13.348 5.02879 14.5528 4.59341 15.7823C 4.10307 17.1469 3.67759 18.5269 3.27245 19.9119L 2.38191 23.0963C 2.01141 24.5812 1.69642 26.0661 1.41112 27.5609L 0.870748 30.7151C 0.650312 32.1797 0.48045 33.6349 0.350168 35.0896L 0.0901532 38.5739C 0.0252869 39.9039 -2.68677e-09 41.2284 -2.68677e-09 42.5584C -2.68677e-09 43.8885 0.0197897 45.2179 0.0901532 46.543L 0.350168 50.0273C 0.485398 51.482 0.660207 52.9471 0.870748 54.4018L 1.41112 57.556C 1.70137 59.0508 2.01141 60.5357 2.38191 62.0206L 3.27245 65.205C 3.68309 66.5801 4.10307 67.9694 4.59341 69.3346C 5.02879 70.5542 5.51913 71.7541 6.00453 72.9589C 6.48498 74.1088 6.94509 75.2637 7.48106 76.4031C 8.16161 77.8479 8.90207 79.2526 9.66783 80.6623L 10.6639 82.6172L 11.1246 83.3322C 12.0052 84.8368 12.976 86.2717 13.9572 87.7066L 15.5289 90.041C 16.4749 91.331 17.5106 92.5605 18.5468 93.8005L 20.6187 96.2798C 21.5197 97.2645 22.4855 98.2046 23.436 99.1497C 24.387 100.105 25.3226 101.084 26.3137 101.969L 28.7957 104.049C 30.0369 105.073 31.2678 106.108 32.559 107.058L 34.8761 108.638C 36.3174 109.622 37.7637 110.593 39.2551 111.467L 39.9659 111.928L 41.9174 112.923C 43.3186 113.683 44.7297 114.437 46.176 115.112L 46.5916 115.327L 48.6184 116.157C 54.0331 118.461 59.688 120.091 65.4534 121.166L 88.2984 81.5919C 85.6208 82.1274 82.848 82.4321 80.0005 82.4321Z"/>
<path id="path9_fill" d="M 83.0536 24.1562L 82.9486 22.8366C 82.3829 16.1574 79.6355 6.4892 77.3536 1.74288e-06L 30.0969 1.74288e-06C 38.1788 7.31401 43.2884 17.8471 43.2884 29.6053C 43.2884 42.2932 37.358 53.5764 28.1498 60.9003L 3.5565e-06 109.673C 9.89871 109.673 23.2254 107.888 32.8141 104.059L 33.1395 103.954L 33.6502 103.739C 36.9183 102.385 40.1511 100.9 43.2988 99.0799C 46.1161 97.4599 48.7536 95.6406 51.301 93.7406L 51.4461 93.6258C 53.8984 91.7708 56.1951 89.7967 58.3874 87.7165L 58.7276 87.4216L 59.8337 86.297C 64.6777 81.4525 68.8369 76.1038 72.2297 70.3346L 72.6151 69.7695L 73.3105 68.3648C 74.4016 66.3851 75.4126 64.3605 76.3333 62.3006L 77.5141 59.5258C 78.2947 57.5709 78.9753 55.5912 79.6008 53.5868L 80.4265 51.007C 81.1923 48.2223 81.8178 45.4129 82.2835 42.5683L 82.4786 40.9484C 82.8238 38.5085 83.069 36.0539 83.1943 33.5745L 83.2394 31.5899C 83.279 29.1204 83.229 26.6361 83.0536 24.1562Z"/>
<path id="path10_fill" d="M 130.135 39.939C 128.458 37.0396 126.582 34.3351 124.61 31.7255L 123.964 30.9254C 122.193 28.641 120.316 26.4714 118.334 24.4313L 116.993 23.0562C 114.816 20.9168 112.559 18.8866 110.192 17.0322L 109.671 16.5923C 107.034 14.5627 104.271 12.7379 101.424 11.0679L 100.853 10.6879L 98.6864 9.5633C 97.4352 8.8884 96.189 8.21351 94.9033 7.60835C 93.6669 7.0334 92.4213 6.52325 91.1751 6.0087L 88.0373 4.75886C 86.5212 4.21411 84.9897 3.75393 83.4532 3.28386L 80.9009 2.54417C 79.2292 2.11419 77.5427 1.77428 75.8617 1.44918L 73.4798 0.979119C 71.8383 0.714433 70.1969 0.549141 68.5505 0.394283L 65.853 0.119164C 64.4419 0.0291045 63.0358 0.038989 61.6142 0.0192199L 58.1411 0L 55.4387 0.194945C 49.4633 0.59472 43.4879 1.65951 37.6181 3.43433L 36.4021 3.76436C 34.9157 4.24431 33.4496 4.82915 31.978 5.4041L 29.1558 6.51886C 27.9447 7.03395 26.7486 7.63856 25.5474 8.23382C 24.3864 8.80383 23.2205 9.37878 22.0793 10.0136L 20.7781 10.6786L 18.8563 11.9186C 17.72 12.6187 16.5942 13.3331 15.4882 14.0932C 14.4075 14.8482 13.3416 15.6181 12.3004 16.4078L 9.54799 18.6027C 8.41173 19.5527 7.30626 20.5176 6.22991 21.517L 4.18827 23.5065C 3.00199 24.6965 1.84099 25.9063 0.745413 27.1561L 4.86503e-07 28.0562L 22.7752 67.5252C 28.0047 51.5226 43.0531 39.9396 60.8243 39.9396C 60.8232 39.939 130.135 39.939 130.135 39.939Z"/>
<path id="path11_fill" d="M 44.7131 10.9539C 49.2111 -0.809909 40.4734 0.0123699 40.4734 0.0123699C 34.8677 0.0123699 27.8608 5.15812 27.8608 5.15812C 27.8608 5.15812 19.5017 2.88805 11.1426 7.98289C 2.03299 13.8342 2.33344 24.226 2.33344 24.226C 9.74104 13.5317 20.0517 9.19334 20.0517 9.19334L 20.0517 9.89924C 4.8362 20.386 1.23229 35.7272 0.330938 38.8547C -0.569657 41.9827 0.0304863 49 6.43797 49C 12.8447 49 19.3509 43.7991 19.3509 43.7991C 19.3509 43.7991 20.7522 44.1015 24.5566 44.1015C 40.5736 44.1015 44.3781 29.8763 44.3781 29.8763L 30.1619 29.8763C 30.1619 29.8763 29.161 34.5175 24.0564 34.5175C 17.0491 34.5175 17.4487 27.1529 17.4487 27.1529L 44.5771 27.1529C 45.8792 8.1854 29.4615 5.46131 29.4615 5.46131C 29.4615 5.46131 35.2631 1.32503 40.2732 1.32503C 48.2133 1.32503 44.4594 10.6986 44.4594 10.6986L 44.7131 10.9539ZM 18.5567 43.589C 18.5567 43.589 8.78005 49.5689 4.39103 45.4257C 2.04021 41.2817 5.86024 35.414 5.86024 35.414C 5.86024 35.414 9.0938 41.4559 18.5567 43.589ZM 30.3172 20.6972L 17.4145 20.6972C 17.4145 20.6972 17.2512 14.3601 24.029 14.3601C 30.5744 14.3601 30.3172 20.6972 30.3172 20.6972Z"/>
</defs>
</svg>

<svg width="478" height="210" xmlns="http://www.w3.org/2000/svg" xmlns:xlink="http://www.w3.org/1999/xlink"><use xlink:href="#path0_fill" transform="translate(358)" fill="#26A6D1"/><use xlink:href="#path1_fill" fill="#E2574C"/><use xlink:href="#path2_fill" transform="translate(75 24)" fill="#2196F3"/><use xlink:href="#path3_fill" transform="translate(101.25 85.25)" fill="#FAFAFA"/><use xlink:href="#path4_fill" transform="translate(136.25 50.25)" fill="#F44336"/><use xlink:href="#path5_fill" transform="translate(268.37 24)" fill="#2394BC"/><use xlink:href="#path6_fill" transform="translate(264 33.445)" fill="#EC8840"/><g><use xlink:href="#path7_fill" transform="translate(208.974 99.937)" fill="#26A6D1"/><use xlink:href="#path8_fill" transform="translate(159 87.5)" fill="#3DB39E"/><use xlink:href="#path9_fill" transform="translate(235.748 100.327)" fill="#EFC75E"/><use xlink:href="#path10_fill" transform="translate(178.182 50)" fill="#E2574C"/></g><g><use xlink:href="#path11_fill" transform="translate(216)" fill="#2995CC"/></g><defs><path id="path0_fill" d="M46.353 29.593c-5.198 5.21-7.798 11.622-8.664 18.434h45.92v-3.206c-.433-4.408-1.3-8.816-3.898-12.824-3.466-5.21-9.098-8.015-15.596-8.816-9.53-1.603-18.628 0-27.292 3.206-12.996 4.408-23.826 11.621-32.49 21.24-1.3 1.602-2.6 3.606-4.333 5.61 0-1.202 0-1.603.433-2.404 1.733-11.221 6.065-22.041 14.296-30.858 9.53-10.42 21.66-16.831 36.39-19.236 14.296-2.003 27.726 0 40.289 6.813 11.697 6.011 19.494 15.228 24.26 26.85 2.599 6.412 3.898 13.626 4.332 20.438v14.827H38.556c0 6.012 2.166 11.622 6.499 16.03 5.198 5.21 12.13 7.614 19.06 8.817 15.596 2.003 29.892-.401 43.322-7.615.433 0 .866-.4.866-.4h.433v24.045c0 .801-.433 1.202-1.299 1.602-9.53 4.408-19.928 7.214-30.758 7.614-6.931.401-13.863.401-20.36-.801-20.361-4.008-36.824-17.633-40.723-37.27-4.332-22.442 7.365-42.88 30.325-52.097h.432z"/><path id="path1_fill" d="M94.446 9.44C84.97 3.363 73.241 0 60.016 0 47.919 0 37.078 2.804 28.058 7.93 10.693 17.7 0 35.99 0 59.425 0 91.124 23.997 120 60.004 120 96.006 120 120 91.13 120 59.425c-.004-22.28-9.669-39.91-25.554-49.984zm-34.434 1.755c19.313 0 23.986 25.14 23.986 47.975 0 21.16-2.929 49.474-23.754 49.474-20.825 0-24.262-28.591-24.262-49.748.004-22.835 4.713-47.701 24.03-47.701z"/><path id="path2_fill" d="M70 140c38.66 0 70-31.34 70-70S108.66 0 70 0 0 31.34 0 70s31.34 70 70 70z"/><path id="path3_fill" d="M35 0L0 52.5l52.5-35L35 0z"/><path id="path4_fill" d="M0 35l17.5 17.5L52.5 0 0 35z"/><path id="path5_fill" d="M65.544 0c36.268 0 65.545 30.16 65.545 67.524 0 37.364-29.277 67.525-65.545 67.525C29.277 135.049 0 104.888 0 67.524 0 30.161 29.276 0 65.544 0z"/><path id="path6_fill" d="M81.275 129.205c33.209-5.852 58.553-35.113 58.553-71.126l-.437.9c.874-6.752.874-13.054-.437-18.006-.437 4.052-.874 6.302-1.748 7.203 0-.45 0-4.502-1.311-9.904-.437-4.05-1.311-8.103-2.622-11.704.437 1.8.437 3.151.437 4.502C128.467 17.115 116.232-.442 85.208.008c0 0 10.924 1.35 15.73 9.004 0 0-5.243-1.35-9.176.9 4.806 1.8 9.176 4.051 12.672 6.302h.437c.874.45 1.747 1.35 2.621 1.8 6.555 4.952 12.672 11.705 12.235 20.258-1.748-2.7-3.496-4.502-6.117-4.952 3.059 12.154 3.059 22.058.874 29.711-1.748-5.402-3.059-8.103-4.37-9.453 1.748 16.205-.437 27.91-7.428 35.562 1.311-4.502 1.747-8.553 1.747-11.704-8.302 12.604-17.478 19.357-27.965 19.807-3.933 0-7.866-.45-11.798-1.8-5.244-1.801-10.05-4.952-14.42-9.454 6.555.45 13.109-.45 18.353-3.601l8.739-5.853c1.31-.45 2.185-.45 3.496 0 2.184-.45 3.058-1.35 2.184-3.6-.874-1.351-2.621-2.702-4.806-4.052-4.37-2.251-9.176-1.8-13.983 1.35-4.807 2.701-9.176 2.701-13.546-.45-2.622-1.8-5.68-4.502-8.302-8.103l-.874-1.8c-.437 4.051 0 8.553 1.747 14.855-1.747-5.852-2.185-10.804-1.747-14.855 0-3.152 1.31-5.402 3.932-5.402h-.874 1.311c3.059.45 6.117.9 10.05 2.25.437-3.6 0-7.652-2.621-11.703 3.495-3.602 6.554-5.853 9.176-7.203 1.31-.45 1.748-1.8 2.185-3.151.874-1.8.437-2.701-.437-3.602-2.622 0-4.807 0-7.428-.45-.874-.45-2.185-1.35-3.933-2.7l-3.932-4.052-1.311-.9-.437-.45.437-.45c.437-3.151 1.31-5.852 2.622-8.103l.436-.45c1.311-2.251 3.933-4.502 7.429-7.203-6.992.9-13.11 4.051-18.79 9.454-4.37-1.35-10.05-.9-16.167 1.8l-.874.45.874-.45c-3.933-1.8-6.555-7.203-7.866-16.206-5.243 4.952-7.428 14.406-7.428 27.46l-1.31 2.251-.437.45c-.874 1.35-1.748 3.152-3.06 5.402-1.747 3.601-2.62 6.302-2.62 9.003v2.7l3.932-3.15c-1.311 4.05-2.622 8.103-3.06 12.154v1.8L0 58.08c0 15.306 4.807 29.712 12.672 41.416l.437.45.437.45c5.68 8.103 13.108 14.855 21.848 20.257 6.117 3.601 12.672 6.302 19.663 8.103l1.311.45c1.31.45 3.059.45 4.37.9 1.31 0 2.185.45 3.496.45H74.72c1.747 0 3.495-.45 5.243-.45 0-.9 1.31-.9 1.31-.9zm44.133-87.781v.45-.45z"/><path id="path7_fill" d="M30.026 0c16.585 0 30.027 13.438 30.027 29.995 0 16.573-13.442 29.995-30.026 29.995C13.45 59.99 0 46.562 0 29.995 0 13.438 13.452 0 30.026 0z"/><path id="path8_fill" d="M80 82.432c-20.258 0-36.957-15.038-39.62-34.555L12.78.07 12.75 0 9.664 4.454A80.887 80.887 0 0 0 7.48 8.708l-1.476 3.45a76.927 76.927 0 0 0-1.412 3.624 71.74 71.74 0 0 0-1.32 4.13l-.891 3.184a81.536 81.536 0 0 0-.97 4.465L.87 30.715C.65 32.18.48 33.635.35 35.09l-.26 3.484A81.66 81.66 0 0 0 0 42.558c0 1.33.02 2.66.09 3.985l.26 3.484c.135 1.455.31 2.92.52 4.375l.541 3.154c.29 1.495.6 2.98.97 4.465l.891 3.184c.411 1.375.831 2.764 1.321 4.13.436 1.22.926 2.42 1.412 3.624.48 1.15.94 2.305 1.476 3.444a83.22 83.22 0 0 0 2.187 4.26l.996 1.954.46.715c.881 1.505 1.852 2.94 2.833 4.375l1.572 2.334c.946 1.29 1.982 2.52 3.018 3.76l2.072 2.479c.9.984 1.866 1.925 2.817 2.87.951.955 1.887 1.934 2.878 2.819l2.482 2.08c1.24 1.024 2.472 2.059 3.763 3.009l2.317 1.58c1.441.984 2.888 1.955 4.38 2.829l.71.461 1.951.995c1.402.76 2.813 1.514 4.259 2.189l.416.215 2.026.83c5.415 2.304 11.07 3.934 16.835 5.009l22.845-39.574c-2.677.535-5.45.84-8.297.84z"/><path id="path9_fill" d="M83.054 24.156l-.105-1.32C82.383 16.158 79.635 6.49 77.354 0H30.097c8.082 7.314 13.191 17.847 13.191 29.605 0 12.688-5.93 23.971-15.138 31.295L0 109.673c9.899 0 23.225-1.785 32.814-5.614l.325-.105.511-.215c3.268-1.354 6.501-2.839 9.649-4.66 2.817-1.62 5.455-3.438 8.002-5.338l.145-.115a81.53 81.53 0 0 0 6.941-5.91l.34-.294 1.107-1.125c4.844-4.844 9.003-10.193 12.396-15.962l.385-.566.696-1.404a81.317 81.317 0 0 0 3.022-6.064l1.181-2.775a81.195 81.195 0 0 0 2.087-5.94l.826-2.579a81.397 81.397 0 0 0 1.856-8.439l.196-1.62a82.2 82.2 0 0 0 .715-7.373l.045-1.985c.04-2.47-.01-4.954-.185-7.434z"/><path id="path10_fill" d="M130.135 39.939c-1.677-2.9-3.553-5.604-5.525-8.213l-.646-.8a77.138 77.138 0 0 0-5.63-6.495l-1.341-1.375c-2.177-2.14-4.434-4.17-6.801-6.024l-.521-.44c-2.637-2.03-5.4-3.854-8.247-5.524l-.571-.38-2.167-1.125c-1.25-.675-2.497-1.35-3.783-1.955-1.236-.575-2.482-1.085-3.728-1.6l-3.138-1.25c-1.516-.544-3.047-1.004-4.584-1.474l-2.552-.74c-1.672-.43-3.358-.77-5.04-1.095L73.48.98C71.838.714 70.197.55 68.55.394L65.853.12c-1.411-.09-2.817-.08-4.239-.1L58.141 0 55.44.195a79.974 79.974 0 0 0-17.82 3.24l-1.217.33c-1.486.48-2.952 1.064-4.424 1.64l-2.822 1.114c-1.211.515-2.407 1.12-3.609 1.715-1.16.57-2.326 1.145-3.468 1.78l-1.3.665-1.923 1.24a80.167 80.167 0 0 0-3.368 2.174c-1.08.755-2.146 1.525-3.188 2.315l-2.752 2.195a84.825 84.825 0 0 0-3.318 2.914l-2.042 1.99a78.43 78.43 0 0 0-3.443 3.65l-.745.9 22.775 39.468c5.23-16.002 20.278-27.585 38.05-27.585-.002-.001 69.31-.001 69.31-.001z"/><path id="path11_fill" d="M44.713 10.954C49.211-.81 40.473.012 40.473.012c-5.605 0-12.612 5.146-12.612 5.146s-8.36-2.27-16.718 2.825c-9.11 5.851-8.81 16.243-8.81 16.243C9.741 13.532 20.052 9.193 20.052 9.193V9.9C4.836 20.386 1.232 35.727.33 38.855-.57 41.983.03 49 6.438 49s12.913-5.2 12.913-5.2 1.401.302 5.206.302c16.017 0 19.821-14.226 19.821-14.226H30.162s-1.001 4.641-6.106 4.641c-7.007 0-6.607-7.364-6.607-7.364h27.128C45.88 8.185 29.462 5.46 29.462 5.46s5.801-4.136 10.811-4.136c7.94 0 4.186 9.374 4.186 9.374l.254.255zM18.557 43.589S8.78 49.569 4.39 45.426c-2.35-4.144 1.47-10.012 1.47-10.012s3.233 6.042 12.696 8.175zm11.76-22.892H17.415s-.164-6.337 6.614-6.337c6.545 0 6.288 6.337 6.288 6.337z"/></defs></svg>
